;TIME:8520.65
;Filament used:25.52532m
;Layer height:0.200
; HEADER_BLOCK_START
; generated by Creality_Print V6.0.5.1840 on 2025-04-12 at 14:07:19
; total layer number: 25
; filament_density: 1.24
; filament_diameter: 1.75
; max_z_height: 5.00
; HEADER_BLOCK_END

; MINX = 13.48
; MINY = 13.48
; MINZ = 0.00
; MAXX = 206.52
; MAXY = 206.52
; MAXZ = 5.08

; THUMBNAIL_BLOCK_START

;
; THUMBNAIL_BLOCK_END

; THUMBNAIL_BLOCK_START

;
; THUMBNAIL_BLOCK_END

; external perimeters extrusion width = 0.42mm
; perimeters extrusion width = 0.45mm
; infill extrusion width = 0.45mm
; solid infill extrusion width = 0.42mm
; top infill extrusion width = 0.42mm
; first layer extrusion width = 0.50mm

; EXECUTABLE_BLOCK_START
M73 P0 R142
M201 X5000 Y5000 Z500 E5000
M203 X500 Y500 Z30 E100
M204 P5000 R2500 T5000 ; sets acceleration (P, T) and retract acceleration (R), mm/sec^2
M205 X10.00 Y10.00 Z0.40 E5.00 ; sets the jerk limits, mm/sec
;TYPE:Custom
M220 S100 ;Reset Feedrate 
M221 S100 ;Reset Flowrate 
 
M140 S50 ;Set final bed temp 
G28 ;Home 
 
G92 E0 ;Reset Extruder 
G1 Z2.0 F3000 ;Move Z Axis up 
M104 S190 ;Set final nozzle temp 
G1 X-2.1 Y20 Z0.28 F5000.0 ;Move to start position 
M190 S50 ;Wait for bed temp to stabilize 
M109 S190 ;Wait for nozzle temp to stabilize 
G1 X-2.1 Y145.0 Z0.28 F1500.0 E15 ;Draw the first line 
G1 X-2.4 Y145.0 Z0.28 F5000.0 ;Move to side a little 
M73 P0 R141
M73 P0 R141
G1 X-2.4 Y20 Z0.28 F1500.0 E30 ;Draw the second line 
G92 E0  ;Reset Extruder 
G1 E-1.0000 F1800 ;Retract a bit 
G1 Z2.0 F3000 ;Move Z Axis up 
G1 E0.0000 F1800
G90
G21
M83 ; use relative distances for extrusion
" "
G1 E-1.2 F2400
M106 S0
;LAYER_CHANGE
;Z:0.2
;HEIGHT:0.2
;BEFORE_LAYER_CHANGE
;0.2
G92 E0

;_SET_FAN_SPEED_CHANGING_LAYER
M204 P500
M205 X10 Y10
; printing object base_top.stl id:0 copy 0
M204 T500
G1 Z.2 F9000
G1 X205.163 Y205.663
G1 E1.2 F1800
;TYPE:Inner wall
;WIDTH:0.499999
G1 X14.337 Y205.663 E6.88995
G1 X14.337 Y14.337 E6.908
G1 X205.663 Y14.337 E6.908
G1 X205.663 Y205.663 E6.908
G1 X205.203 Y205.663 E.01661
G1 E-1.2 F2400
;WIPE_START
G1 F9000
G1 X203.203 Y205.663
;WIPE_END
G1 X206.12 Y206.12 Z.4
G1 Z.2
G1 E1.2 F1800
;TYPE:Outer wall
G1 X13.88 Y206.12 E6.94101
G1 X13.88 Y13.88 E6.94101
G1 X206.12 Y13.88 E6.94101
G1 X206.12 Y206.08 E6.93957
G1 E-1.2 F2400
M73 P0 R140
;WIPE_START
M73 P0 R140
G1 F9000
G1 X204.12 Y206.08
;WIPE_END
G1 X200.324 Y205.692 Z.4
G1 X149.011 Y200.44 Z.4
G1 Z.2
G1 E1.2 F1800
;TYPE:Inner wall
G1 X148.966 Y200.26 E.00667
G1 X148.98 Y199.537 E.02613
G1 X149.131 Y199.012 E.01972
G1 X149.379 Y198.568 E.01838
G1 X149.718 Y198.187 E.01838
G1 X150.13 Y197.888 E.01838
G1 X150.597 Y197.685 E.01838
G1 X151.096 Y197.587 E.01838
G1 X151.605 Y197.598 E.01838
G1 X152.097 Y197.718 E.01827
G1 X152.733 Y198.071 E.02625
G1 X152.903 Y198.215 E.00804
G1 X153.253 Y198.626 E.01951
G1 X153.504 Y199.111 E.01972
G1 X153.629 Y199.605 E.0184
G1 X153.615 Y200.329 E.02614
G1 X153.465 Y200.854 E.01972
G1 X153.216 Y201.298 E.01839
G1 X152.765 Y201.774 E.02369
G1 X152.335 Y202.047 E.01839
G1 X151.863 Y202.219 E.01811
G1 X151.351 Y202.287 E.01866
G1 X150.844 Y202.243 E.01838
G1 X150.325 Y202.073 E.01972
G1 X149.862 Y201.795 E.01951
G1 X149.693 Y201.651 E.00801
G1 X149.343 Y201.239 E.01951
G1 X149.091 Y200.754 E.01972
G1 X149.021 Y200.478 E.01028
G1 X149.574 Y200.694 F9000
;TYPE:Outer wall
G1 F1800
G1 X149.49 Y200.516 E.00711
G1 X149.407 Y200.101 E.01528
G1 X149.437 Y199.562 E.01949
G1 X149.585 Y199.113 E.01706
G3 X152.032 Y198.183 I1.726 J.856 E.10391
G1 X152.498 Y198.462 E.01963
G1 X152.904 Y198.922 E.02216
G1 X153.105 Y199.35 E.01706
G1 X153.188 Y199.765 E.01528
G1 X153.159 Y200.304 E.0195
G1 X153.011 Y200.753 E.01706
G1 X152.795 Y201.102 E.01483
G3 X150.561 Y201.682 I-1.495 J-1.167 E.08959
G1 X150.098 Y201.403 E.01951
G1 X149.691 Y200.943 E.02215
G1 X149.591 Y200.73 E.0085
G1 E-1.2 F2400
;WIPE_START
G1 F9000
G1 X149.49 Y200.516
G1 X149.407 Y200.101
G1 X149.437 Y199.562
G1 X149.585 Y199.113
G1 X149.757 Y198.835
;WIPE_END
G1 X153.407 Y197.72 Z.4
G1 X162.179 Y195.04 Z.4
G1 Z.2
G1 E1.2 F1800
;TYPE:Inner wall
G1 X146.626 Y195.04 E.56154
G1 X146.321 Y194.968 E.01134
G1 X146.088 Y194.779 E.0108
G1 X145.941 Y194.466 E.01249
G1 X145.941 Y180.511 E.50386
G1 X146.005 Y180.22 E.01076
G1 X146.191 Y179.982 E.01091
G1 X146.435 Y179.853 E.00997
G1 X147.023 Y179.826 E.02124
G1 X162.589 Y179.826 E.56204
G1 X162.886 Y179.893 E.01098
G1 X163.125 Y180.083 E.01103
G1 X163.275 Y180.396 E.01252
G1 X163.275 Y194.354 E.50398
G1 X163.222 Y194.618 E.00971
G1 X163.062 Y194.851 E.0102
G1 X162.853 Y194.987 E.00902
G1 X162.589 Y195.04 E.00971
G1 X162.219 Y195.04 E.01337
G1 X162.589 Y194.583 F9000
;TYPE:Outer wall
G1 F1800
G1 X146.626 Y194.583 E.57636
G1 X146.463 Y194.514 E.00639
G1 X146.398 Y194.354 E.00624
G1 X146.398 Y180.511 E.49981
G1 X146.467 Y180.347 E.00643
G1 X146.626 Y180.283 E.0062
G1 X162.589 Y180.283 E.57636
G1 X162.753 Y180.352 E.00642
G1 X162.818 Y180.511 E.00621
G1 X162.818 Y194.354 E.49981
G1 X162.747 Y194.52 E.0065
G1 X162.626 Y194.568 E.00468
G1 E-1.2 F2400
;WIPE_START
G1 F9000
G1 X160.626 Y194.57
;WIPE_END
G1 X158.879 Y191.177 Z.4
G1 X149.65 Y173.257 Z.4
G1 Z.2
G1 E1.2 F1800
;TYPE:Inner wall
G1 X150.099 Y172.91 E.0205
G1 X150.597 Y172.685 E.01972
G1 X151.096 Y172.587 E.01838
G1 X151.605 Y172.598 E.01838
G1 X152.101 Y172.719 E.0184
G1 X152.734 Y173.071 E.02615
G1 X152.903 Y173.215 E.00801
G1 X153.253 Y173.626 E.01951
G1 X153.504 Y174.111 E.01972
G1 X153.629 Y174.605 E.0184
G1 X153.615 Y175.329 E.02614
G1 X153.465 Y175.854 E.01972
G1 X153.216 Y176.298 E.01838
G1 X152.878 Y176.678 E.01838
G1 X152.466 Y176.977 E.01838
G1 X151.999 Y177.181 E.01838
G1 X151.499 Y177.279 E.01839
G1 X150.99 Y177.267 E.01838
G1 X150.499 Y177.147 E.01827
G1 X149.863 Y176.795 E.02623
G1 X149.469 Y176.416 E.01975
G1 X149.193 Y175.988 E.0184
G1 X148.975 Y175.298 E.02613
G1 X148.95 Y174.752 E.01972
G1 X149.044 Y174.252 E.01838
G1 X149.28 Y173.714 E.02121
G1 X149.608 Y173.289 E.01937
G1 X149.618 Y173.282 E.00045
G1 X149.675 Y173.951 F9000
;TYPE:Outer wall
G1 F1800
G1 X149.683 Y173.933 E.00073
G1 X149.946 Y173.601 E.01528
G1 X150.376 Y173.274 E.01949
G1 X150.814 Y173.096 E.01705
G3 X152.035 Y173.184 I.467 J2.053 E.04486
G1 X152.498 Y173.463 E.01951
G1 X152.904 Y173.922 E.02215
G1 X153.105 Y174.35 E.01706
G1 X153.188 Y174.765 E.01528
G1 X153.159 Y175.304 E.0195
G1 X153.011 Y175.753 E.01706
G3 X150.564 Y176.683 I-1.726 J-.856 E.10391
G1 X150.098 Y176.403 E.01961
G1 X149.771 Y176.062 E.01707
G1 X149.56 Y175.695 E.01528
G1 X149.416 Y175.175 E.01949
G1 X149.413 Y174.703 E.01706
G1 X149.497 Y174.324 E.01401
G1 X149.658 Y173.987 E.01348
G1 E-1.2 F2400
;WIPE_START
G1 F9000
G1 X149.683 Y173.933
G1 X149.946 Y173.601
G1 X150.376 Y173.274
G1 X150.814 Y173.096
G1 X151.22 Y173.035
G1 X151.313 Y173.042
;WIPE_END
G1 X153.305 Y169.787 Z.4
G1 X188.403 Y112.442 Z.4
G1 Z.2
G1 E1.2 F1800
;TYPE:Inner wall
G1 X188.261 Y112.577 E.00707
G1 X187.776 Y112.906 E.02115
G1 X187.101 Y113.192 E.0265
G1 X186.379 Y113.327 E.0265
G1 X185.646 Y113.303 E.02648
G1 X185.152 Y113.196 E.01824
G1 X184.597 Y112.975 E.02157
G1 X183.981 Y112.577 E.0265
G1 X183.465 Y112.055 E.0265
G1 X183.083 Y111.452 E.02578
G1 X182.823 Y110.744 E.02721
G1 X182.728 Y110.023 E.02626
G1 X182.756 Y109.501 E.01886
G1 X182.882 Y108.929 E.02116
G1 X183.176 Y108.256 E.0265
G1 X183.607 Y107.663 E.02648
G1 X183.974 Y107.313 E.0183
G1 X184.466 Y106.979 E.0215
G1 X185.142 Y106.693 E.02651
G1 X185.864 Y106.558 E.0265
G1 X186.597 Y106.582 E.0265
G1 X187.302 Y106.761 E.02626
G1 X187.777 Y106.979 E.01886
G1 X188.262 Y107.308 E.02116
G1 X188.778 Y107.83 E.0265
G1 X189.167 Y108.444 E.02627
G1 X189.361 Y108.93 E.01886
G1 X189.487 Y109.502 E.02116
G1 X189.503 Y110.236 E.0265
G1 X189.361 Y110.956 E.0265
G1 X189.067 Y111.628 E.0265
G1 X188.636 Y112.222 E.02648
G1 X188.433 Y112.415 E.01014
G1 X188.373 Y111.811 F9000
;TYPE:Outer wall
G1 F1800
G1 X188.273 Y111.945 E.00603
G1 X188.005 Y112.199 E.01331
G1 X187.52 Y112.527 E.02115
G1 X186.932 Y112.768 E.02295
G1 X186.305 Y112.876 E.02295
G1 X185.671 Y112.847 E.02293
G1 X185.311 Y112.767 E.01331
G1 X184.767 Y112.551 E.02115
G1 X184.238 Y112.198 E.02295
G1 X183.797 Y111.741 E.02295
G1 X183.475 Y111.216 E.02222
G1 X183.257 Y110.598 E.02366
G1 X183.183 Y109.973 E.02272
G1 X183.202 Y109.6 E.01351
G1 X183.328 Y109.027 E.02116
G1 X183.59 Y108.448 E.02295
G1 X183.97 Y107.94 E.02293
G1 X184.238 Y107.686 E.01331
G1 X184.723 Y107.357 E.02115
G1 X185.311 Y107.117 E.02295
G1 X185.938 Y107.009 E.02295
G1 X186.573 Y107.038 E.02295
G1 X187.18 Y107.201 E.02272
G1 X187.52 Y107.358 E.01351
G1 X188.005 Y107.686 E.02116
G1 X188.446 Y108.144 E.02295
G1 X188.775 Y108.68 E.02272
G1 X188.915 Y109.028 E.01351
G1 X189.041 Y109.6 E.02116
G1 X189.046 Y110.236 E.02295
G1 X188.915 Y110.857 E.02295
G1 X188.653 Y111.436 E.02295
G1 X188.397 Y111.779 E.01545
G1 E-1.2 F2400
;WIPE_START
G1 F9000
G1 X188.273 Y111.945
G1 X188.005 Y112.199
G1 X187.52 Y112.527
G1 X186.932 Y112.768
G1 X186.732 Y112.802
;WIPE_END
G1 X183.365 Y111.005 Z.4
G1 X91.321 Y61.862 Z.4
G1 Z.2
G1 E1.2 F1800
;TYPE:Inner wall
G1 X96.18 Y60.225 E.18512
G1 X101.643 Y59.022 E.20196
G1 X107.203 Y58.417 E.20196
G1 X112.797 Y58.417 E.20196
G1 X118.357 Y59.022 E.20196
G1 X123.82 Y60.225 E.20196
G1 X129.121 Y62.011 E.20196
G1 X134.197 Y64.359 E.20196
G1 X138.99 Y67.243 E.20196
G1 X143.443 Y70.628 E.20196
G3 X147.528 Y74.503 I-237.72 J254.69 E.20329
G1 X151.125 Y78.738 E.20061
G1 X154.264 Y83.367 E.20196
G1 X156.884 Y88.309 E.20196
G1 X158.94 Y93.471 E.20062
G3 X160.441 Y98.859 I-578.134 J163.869 E.20195
G3 X161.35 Y104.378 I-454.394 J77.664 E.20195
G3 X161.656 Y109.963 I-778.926 J45.594 E.20195
G3 X161.358 Y115.548 I-443.627 J-20.932 E.20195
G3 X160.457 Y121.068 I-440.352 J-69.034 E.20195
G3 X158.964 Y126.459 I-509.134 J-138.065 E.20195
G3 X156.884 Y131.691 I-620.54 J-243.703 E.20329
G1 X154.264 Y136.633 E.20196
G1 X151.146 Y141.232 E.20062
G3 X147.528 Y145.497 I-450.881 J-378.758 E.20195
G3 X143.47 Y149.346 I-417.156 J-435.69 E.20195
G3 X139.015 Y152.738 I-338.596 J-440.134 E.20215
G3 X134.229 Y155.622 I-322.273 J-529.464 E.20175
G3 X129.154 Y157.974 I-248.116 J-528.634 E.20195
G3 X123.855 Y159.764 I-194.762 J-567.923 E.20195
G3 X118.357 Y160.978 I-124.142 J-549.017 E.20329
G1 X112.797 Y161.583 E.20196
G1 X107.203 Y161.583 E.20196
G1 X101.643 Y160.978 E.20196
G1 X96.216 Y159.783 E.20062
G3 X90.915 Y158.001 I259.266 J-780.081 E.20195
G3 X85.837 Y155.656 I283.595 J-620.809 E.20195
G3 X81.042 Y152.776 I284.083 J-478.351 E.20195
G3 X76.584 Y149.392 I315.205 J-419.89 E.20207
G3 X72.523 Y145.551 I480.331 J-511.812 E.20183
G3 X68.875 Y141.262 I458.165 J-393.425 E.2033
G1 X65.736 Y136.633 E.20195
G1 X63.116 Y131.691 E.20196
M73 P1 R140
M73 P1 R140
G1 X61.046 Y126.495 E.20196
G1 X59.549 Y121.105 E.20196
G1 X58.644 Y115.585 E.20196
G1 X58.342 Y110 E.20196
G1 X58.644 Y104.415 E.20196
G1 X59.549 Y98.895 E.20196
G1 X61.036 Y93.541 E.20062
G3 X63.102 Y88.344 I547.385 J214.633 E.20195
G3 X65.719 Y83.4 I825.735 J433.853 E.20195
G3 X68.875 Y78.738 I579.345 J388.802 E.20329
G1 X72.496 Y74.475 E.20196
G1 X76.557 Y70.628 E.20196
G1 X81.01 Y67.243 E.20196
G1 X85.803 Y64.359 E.20196
G1 X90.879 Y62.011 E.20196
G1 X91.283 Y61.874 E.01539
G1 X91.041 Y62.44 F9000
;TYPE:Outer wall
G1 F1800
G1 X91.049 Y62.436 E.00032
G1 X96.302 Y60.666 E.20017
G1 X101.717 Y59.474 E.20017
G1 X107.228 Y58.875 E.20017
G1 X112.772 Y58.875 E.20017
G1 X118.283 Y59.474 E.20017
G1 X123.698 Y60.666 E.20017
G1 X128.951 Y62.436 E.20017
G1 X133.983 Y64.764 E.20017
G1 X138.733 Y67.622 E.20017
G1 X143.147 Y70.977 E.20017
G3 X147.179 Y74.799 I-636.595 J675.76 E.20061
G1 X150.76 Y79.015 E.19972
G1 X153.872 Y83.603 E.20017
G1 X156.468 Y88.501 E.20017
G1 X158.516 Y93.64 E.19972
G3 X160 Y98.981 I-1623.695 J454.117 E.20017
G3 X160.898 Y104.452 I-1251.463 J208.287 E.20016
G1 X161.2 Y109.988 E.20016
G3 X160.901 Y115.523 I-1216.836 J-62.904 E.20016
G3 X160.006 Y120.994 I-1207.613 J-194.87 E.20016
G3 X158.524 Y126.336 I-1414.754 J-389.56 E.20017
G3 X156.468 Y131.499 I-1739.073 J-689.435 E.20061
G1 X153.872 Y136.397 E.20017
G1 X150.767 Y140.975 E.19972
G3 X147.179 Y145.201 I-1259.771 J-1065.899 E.20016
G3 X143.153 Y149.017 I-1162.969 J-1223.117 E.20029
G1 X138.741 Y152.372 E.20011
G3 X133.993 Y155.23 I-896.318 J-1483.624 E.2001
G3 X128.963 Y157.559 I-689.723 J-1483.27 E.20017
G3 X123.709 Y159.33 I-540.497 J-1594.181 E.20016
G3 X118.283 Y160.526 I-339.353 J-1527.019 E.20061
G1 X112.772 Y161.126 E.20017
G1 X107.228 Y161.126 E.20017
G1 X101.717 Y160.526 E.20017
G1 X96.314 Y159.337 E.19972
G1 X91.06 Y157.568 E.20016
G3 X86.028 Y155.242 I806.47 J-1750.868 E.20016
G3 X81.278 Y152.385 I797.309 J-1331.245 E.20016
G3 X76.862 Y149.03 I880.494 J-1163.432 E.20021
G3 X72.838 Y145.219 I1360.791 J-1441.233 E.20012
G3 X69.239 Y140.985 I1280.803 J-1092.092 E.20062
G1 X66.128 Y136.397 E.20016
G1 X63.532 Y131.499 E.20017
G1 X61.48 Y126.348 E.20017
G1 X59.996 Y121.007 E.20017
G1 X59.1 Y115.536 E.20017
G1 X58.799 Y110 E.20017
G1 X59.1 Y104.464 E.20017
G1 X59.996 Y98.993 E.20017
G1 X61.476 Y93.664 E.19972
G3 X63.528 Y88.51 I1526.123 J604.659 E.20028
G1 X66.124 Y83.611 E.20018
G1 X69.24 Y79.015 E.20048
G1 X72.829 Y74.789 E.20017
G1 X76.853 Y70.977 E.20017
G1 X81.267 Y67.622 E.20017
G1 X86.017 Y64.764 E.20017
G1 X91.004 Y62.456 E.19841
G1 E-1.2 F2400
;WIPE_START
G1 F9000
G1 X91.049 Y62.436
G1 X92.898 Y61.813
;WIPE_END
G1 X92.166 Y65.558 Z.4
G1 X70.381 Y177.082 Z.4
G1 Z.2
G1 E1.2 F1800
;TYPE:Inner wall
G1 X69.863 Y176.795 E.02136
G1 X69.469 Y176.416 E.01975
G1 X69.193 Y175.988 E.0184
G1 X68.975 Y175.298 E.02613
G1 X68.95 Y174.752 E.01972
G1 X69.044 Y174.252 E.01838
G1 X69.243 Y173.783 E.01838
G1 X69.604 Y173.293 E.02196
G1 X70.099 Y172.91 E.02261
G1 X70.597 Y172.685 E.01972
G1 X71.096 Y172.587 E.01838
G1 X71.605 Y172.598 E.01838
G1 X72.101 Y172.719 E.0184
G1 X72.734 Y173.071 E.02615
G1 X72.903 Y173.215 E.00801
G1 X73.253 Y173.626 E.01951
G1 X73.504 Y174.111 E.01972
G1 X73.629 Y174.605 E.0184
G1 X73.615 Y175.329 E.02613
G1 X73.465 Y175.854 E.01972
G1 X73.216 Y176.298 E.01838
G1 X72.878 Y176.678 E.01838
G1 X72.466 Y176.977 E.01838
G1 X71.999 Y177.181 E.01838
G1 X71.499 Y177.279 E.01839
G1 X70.99 Y177.267 E.01838
G1 X70.499 Y177.147 E.01827
G1 X70.416 Y177.102 E.00342
G1 X70.987 Y176.804 F9000
;TYPE:Outer wall
G1 F1800
G1 X70.967 Y176.796 E.00076
G3 X70.564 Y176.683 I.318 J-1.9 E.01516
G1 X70.095 Y176.402 E.01973
G1 X69.771 Y176.062 E.01695
G1 X69.56 Y175.695 E.01528
G1 X69.416 Y175.175 E.01949
G1 X69.413 Y174.703 E.01706
G3 X69.674 Y173.945 I1.908 J.235 E.02915
G1 X69.946 Y173.601 E.01585
G1 X70.376 Y173.274 E.01949
G1 X70.881 Y173.085 E.01947
G1 X71.22 Y173.035 E.01236
G1 X71.629 Y173.063 E.01483
G1 X72.035 Y173.184 E.01528
G1 X72.498 Y173.463 E.01951
G1 X72.904 Y173.922 E.02215
G1 X73.105 Y174.35 E.01706
G1 X73.188 Y174.765 E.01528
G1 X73.159 Y175.304 E.01949
G1 X73.011 Y175.753 E.01706
G3 X71.375 Y176.821 I-1.726 J-.856 E.07397
G1 X71.027 Y176.806 E.0126
G1 E-1.2 F2400
;WIPE_START
G1 F9000
G1 X70.967 Y176.796
G1 X70.564 Y176.683
G1 X70.095 Y176.402
G1 X69.771 Y176.062
G1 X69.56 Y175.695
G1 X69.538 Y175.617
;WIPE_END
G1 X69.483 Y179.433 Z.4
G1 X69.175 Y200.915 Z.4
G1 Z.2
G1 E1.2 F1800
;TYPE:Inner wall
G1 X69.091 Y200.754 E.00655
G1 X68.966 Y200.261 E.01839
G1 X68.98 Y199.537 E.02613
G1 X69.131 Y199.012 E.01972
G1 X69.379 Y198.568 E.01838
G1 X69.718 Y198.187 E.01838
G1 X70.13 Y197.888 E.01838
G1 X70.597 Y197.685 E.01838
G1 X71.096 Y197.587 E.01838
G1 X71.605 Y197.598 E.01838
G1 X72.097 Y197.718 E.01827
G1 X72.733 Y198.071 E.02625
G1 X72.903 Y198.215 E.00804
G1 X73.253 Y198.626 E.01951
G1 X73.504 Y199.111 E.01972
G1 X73.629 Y199.605 E.01838
G1 X73.645 Y200.114 E.01838
G1 X73.552 Y200.614 E.01838
G1 X73.353 Y201.083 E.01838
G1 X73.059 Y201.495 E.01827
G1 X72.497 Y201.955 E.02623
G1 X71.999 Y202.181 E.01975
G1 X71.499 Y202.279 E.01838
G1 X70.99 Y202.267 E.01838
G1 X70.498 Y202.147 E.01827
G1 X69.863 Y201.795 E.02625
G1 X69.693 Y201.651 E.00804
G1 X69.343 Y201.239 E.01951
G1 X69.193 Y200.951 E.01172
G1 X69.783 Y201.047 F9000
;TYPE:Outer wall
G1 F1800
